X:1
T:KOLĘDY
T:harm.:M.Golwiej
T:edycja M.Golwiej
T:edycja M.Golwiej
T:edycja M.Golwiej
T:edycja M.Golwiej
T:edycja M.Golwiej
T:edycja M.Golwiej
T:edycja M.Golwiej
T:edycja M.Golwiej
T:edycja M.Golwiej
T:edycja M.Golwiej
T:edycja M.Golwiej
T:edycja M.Golwiej
T:edycja M.Golwiej
T:edycja M.Golwiej
T:edycja M.Golwiej
Z:edycja M.Golwiej
%%score { ( 1 2 ) | ( 3 4 5 6 ) }
L:1/8
Q:1/4=96
M:3/4
K:C
V:1 treble nm="Organ"
V:2 treble 
V:3 bass 
V:4 bass 
V:5 bass 
V:6 bass 
V:1
"^ACH, WITAJŻE POŻĄDANA""^Andante" C E G3 E | F A A2 G2 | E G G2 F2 | E2 D2 z2 | C E G3 E | %5
 F A A2 G2 | E G G2 F2 | E2 D2 z2 | G3 F E F | G G E2 F2 | G3 F E F | G G E2 C2 | E G G2 F2 | %13
 D F F2 E2 | E G G2 F2 | D F F2 E2 | C B, C D E F | G B, C4 |][K:F] z6 | %19
[K:F]"^ACH, UBOGI ŻŁOBIE"[Q:1/4=112]"^Moderato" FE F2 G2 | A4 G2 | AG A2 B2 | G4 G2 | GA B2 B2 | %24
 AG A2 F2 | EF G2 G2 | FG A4 | GA B2 B2 | AG A2 F2 | EF G2 G2 | F4 F2 |][K:C] z6 | z6 | %33
[K:C][M:4/4]"^ANIOŁ PASTERZOM MÓWIŁ"[Q:1/4=120]"^Vivo" C2 C2 D2 D2 | E2 D2 C4 | G2 G2 A2 A2 | %36
 G2 ^F2 G4 | G2 G2 A4 | G2 G2 F2 F2 | E2 E2 D4 | G2 G2 F2 F2 | E2 E2 D4 | G4 E2 F2 | E2 D2 C4 |] %44
 z8 |[M:3/4]"^wstęp organowy"[Q:1/4=72]"^Adagio" C c3 BA | _B, _B3 _AG | _A, F3 _ED | G6 || %49
"^BÓG SIĘ RODZI" C c (c2 B) A | A A (A2 G) F | E G c G F E | E2 D2 z2 | C c (c2 B) A | %54
 A A (A2 G) F | E G c G F E | E2 D2 z2 | F3 D E F | G G E2 G2 | F3 D E F | G G E2 G2 | F3 D E F | %62
 G G E2 G2 | F3 D E F | G B, D2 C2 |] z6 |"^DLACZEGO DZISIAJ"[Q:1/4=112]"^Moderato" E2 C2 E2 | %67
 G4 F2 | ED C2 E2 | E2 D2 z2 | D2 B,2 D2 | F4 D2 | B,2 A,2 B,2 | D2 C2 z2 |: G4 G2 | A4 A2 | %76
 c2 B2 A2 | A2 G2 z2 | E2 E2 E2 | F2 F2 F2 | D2 G2 G2 | C4 z2 :|[K:D] z6 || %83
[K:D]"^DZISIAJ W BETLEJEM"[Q:1/4=90]"^Andante""^wstęp organowy" D2 DA, DE | F2 FE FG | AB AG FG | %86
 A6 || D2 DA, DE | F2 FE FG | AB A2 G2 | F2 E2 z2 | D2 DA, DE | F2 FE FG | AB A2 G2 | F2 E2 z2 | %95
 A2 AG FE | D2 DA, DF | A2 AG FE | D2 DA, DF | AB AG FG | AB AG FG | AA B2 A2 | %102
 GF[Q:1/4=70]"^Grave" !fermata!E2[Q:1/4=50]"^Grave" D2 |[K:C] z6 | %104
[M:4/4]"^GDY SIĘ CHRYSTUS RODZI"[Q:1/4=106]"^Andante" G2 E2 c2 A2 | A4 G4 | E2 E2 F2 D2 | D4 C4 | %108
 G2 E2 c2 A2 | A4 G4 | E2 E2 F2 D2 | D4 C4 | D2 DE F2 D2 | E2 EF G2 E2 | D2 DE F2 D2 | %115
 E2 EF G2 E2 | G3 G G4 | A3 A A4 | B3 B B4 | c2 G2 A2 F2 | (E4 D4) | C8 |] z8 |: %123
[K:F]"^GDY ŚLICZNA PANNA"[Q:1/4=72]"^Adagio" C2 D E F2 F2 | G B A G G2 F2 :| A G A F G4 | %126
 E G F E D2 C2 | A G A F B4 | A c B A G2 F2 |][K:C] z8 |:[M:3/4]"^JEZU MALUSIEŃKI" cB A2 ^GA | %131
 B2 E4 :: DE F2 F2 | EF G2 G2 | AG F2 E2 |1 D2 E4 :|2 D2 C4 |] z6 | %138
[M:3/4]"^LULAJŻE JEZUNIU"[Q:1/4=86]"^Adagio" E2 E2 E2 | G2 FE F2 | D2 D2 F2 | A2 G2 z2 | E2 E2 E2 | %143
 G2 FE F2 | D2 G3 F | F2 E2 z2 |: G2 G2 cB | A2 A3 G | F2 F2 A2 | A2 G2 z2 | E2 E2 E2 | G2 FE F2 | %152
 D2 G3 F | F2 E2 z2 :|[K:F] z6 |[M:4/4]"^MESYJASZ PSZYSZEDŁ (na św. Jana)" A2 G A B2 B2 | %156
 A c B G A4 | A2 GA B2 B2 | A c B G A4 |: c2 c c d c B A | B2 B B c B A G | A2 A2 B A G2 | A6 z2 :| %163
 z8 |[M:3/4]"^MIZERNA CICHA""^wstęp organowy"[Q:1/4=96]"^Andante" ^f6 | e6 | d6 x2 | ^c4 A2 | %168
 d4 c2- | c2 BA B2 || c6 | B6 || A2 A2 A2 | G4 G2 | F2 F2 F2 | E4 A,2 | D2 D2 E2 | (F2 E2) D2 | %178
 A6 | A6 | A2 A2 A2 | G4 G2 | F2 F2 F2 | E4 A,2 | D2 D2 E2 | F4 E2 | D6 | D6 |][K:C] z6 | %189
[M:2/4]"^NARODZIŁ SIĘ JEZUS CHRYSTUS"[Q:1/4=85]"^Adagio" E E F F | G G A A | G G F F | E4 | %193
 E E F F | G G A A | G G F F | E4 | G2 F E | A2 G F | E E F A | GF E2 | G2 F E | c2 B A | G E F D | %204
 D2 C2 |] z4 ||[K:F][M:2/4]"^NIEPOJĘTE DARY"[Q:1/4=85]"^Adagio" C F F G | A A A B | c2 A2 | %209
 A A A F | G G G E | F4 | C F F G | A A A B | c2 A2 | A A A F | G G G E | F4 | c c c A | B B B G | %220
 A A A F | G A G2 | c c c A | B B B G | A A A F | G A G2 | A A B G | A B A2 | A A B G | A B A2 | %230
 C F F G | AA A B | c2 A2 | A A A F | G G G E | F4 |] z4 | %237
[M:3/4]"^NOWY ROK BIEŻY"[Q:1/4=96]"^Andante" F2 F2 G2 | A4 F2 | G2 G2 A2 | B4 G2 | A4 B2 | c6 |: %243
 c2 c2 c2 | d4 c2 | B2 B2 B2 | c4 B2 | A4 G2 | F6 :|[K:G][M:3/4] z6 | %250
"^O, MILI KRÓLOWIE" E F G2 A2 | B4 c2 | B A G2 F2 | E4 E2 | E F G2 A2 | B4 c2 | B A G2 F2 | E4 E2 | %258
 B B B2 cB | A ^G A2 B2 | G G GB AG | F E F2 B,2 | E F G2 A2 | B4 c2 | B A G2 F2 | E4 E2 |] %266
[K:F] z6 |"^PASTERZE MILI" F E F2 D2 | B6 | A A G2 G2 | F4 z2 | E F G2 G2 | F G A2 A2 | B A G2 G2 | %274
 F G A2 A2 | B A G2 G2 | c6 | B A G2 G2 | F4 z2 |] z6 | %280
[M:4/4]"^POSPIESZCIE JUŻ WSZYSCY (Adeste fideles)"[Q:1/4=105]"^Andante" F2 | F4 C2 F2 | %282
 (G3 E) C2 z2 | A2 G2 A2 B2 | A4 G2 F2 | F4 E2 D2 | (E2 F2) G2 AF | (E4 D3 C) | C4 z4 |: c4 B2 A2 | %290
 B4 A2 z2 | G2 A2 F2 G2 | (F2 ED) C2 F2 | F2 E2 F2 G2 | F4 C2 A2 | A2 G2 A2 B2 | A4 G2 A2 | %297
 B2 A2 G2 F2 | E4 (F2 B2) | (A4 G3 F |1 F6) z2 :|2 F6 z2 |] z8 | %303
[M:4/4]"^PÓJDŹMY WSZYSCY DO STAJENKI" C2 D2 C2 D2 | C3 F A2 F2 | C2 D2 C2 D2 | C3 F A2 F2 | %307
 B3 A G2 G2 | A3 G F2 F2 | E2 E2 D2 E2 | F3 G A2 A2 | B3 A G2 G2 | A3 G F2 F2 | E2 E2 D2 E2 | %314
 F3 F F2 F2 |][K:C] z8 |[M:2/4]"^PRZYBIEŹELI DO BETLEJEM" CB, CD | ED EF | G2 A2 | G4 | CB, CD | %321
 ED EF | G2 A2 | G4 | c2 GG | AG FE | F2 FF | GF ED | E2 F2 | G4 | E2 D2 | C4 |[K:G] z4 | %333
[K:G][M:4/4]"^TRYUMFY KRÓLA NIEBIESKIEGO"[Q:1/4=85]"^Adagio" D2 G2 D4 | G G A A B2 G2 | D2 G2 D4 | %336
 G G A A B2 G2 | A ^G A B A3 F | G F G A F4 | A ^G A B A3 F | G F G A F4 | D2 D2 G4 | A2 A2 B4 | %343
 A2 A2 G4 |][K:F] z8 |[M:3/4]"^W DZIEŃ BOŻEGO NARODZENIA (radość)"[Q:1/4=96]"^Andante" F F F2 A2 | %346
 G ^F G2 C2 | A B c2 d2 | c =B c2 A2 | c c c2 dc | B B B2 cB | A A A2 BA | G ^F G2 C2 | c3 B B2 | %354
 A4 z2 |] z6 |[M:4/4]"^WŚRÓD NOCNEJ CISZY"[Q:1/4=106]"^Andante" F4 G2 E2 | F4 C4 | A2 A2 B2 G2 | %359
 A6 z2 | F4 G2 E2 | F4 C4 | A2 A2 B2 G2 | A6 z2 | F2 A2 F2 A2 | B3 G E2 C2 | F2 A2 F2 A2 | %367
 B3 G E2 C2 | F2 F2 G2 G2 | F6 z2 |] z8 |:[M:3/4]"^W ŻŁOBIE LEŻY"[Q:1/4=96]"^Andante" C C F2 F2 | %372
 E F G2 G2 | A B c2 B2 | A G F4 :| A G F2 F2 | B A G2 G2 | A G F2 F2 | B A G2 G2 | A B c2 B2 | %380
 A G F4 |][K:D] z6 |[M:3/4]"^Z NARODZENIA PANA"[Q:1/4=96]"^Andante" DD D2 B2 | A4 G2 | FF E2 E2 | %385
 D4 z2 | DD D2 B2 | A4 G2 | FF E2 E2 | D4 z2 |: A2 F2 AA | AG G2 F2 :| DD D2 B2 | A4 G2 | %394
 FF E2 E2 | D4 z2 |][K:C] z6 |:[M:3/4]"^ZJAWIŁO SIĘ NAM"[Q:1/4=85]"^Adagio" C2 E2 G2 | (E3 D) C2 | %399
 c2 c2 c2 | B2 c4 :| c2 G2 AB | (c3 A) G2 | A2 A2 A2 | (G3 F) E2 | G2 E2 G2 | F2 D2 F2 | E4 D2 | %408
 C4 z2 |] z6 |] %410
V:2
 C2 E2 D2 | C2 ^D2 E2 | C2 E2 D2 | C2 B,4 | C4 D2 | CF- F2 E2 | C6- | C2 B,4 | C6 | D2 C4- | %10
 C4 B,2 | C6- | C2 DE- ED | CB, CD- DC- | C2 E2 D2- | D4- DC/B,/ | A,6- | A,2 G,4 |][K:F] x6 | %19
[K:F] C6- | C6- | C2 _D4 | C6 | D6- | D2 ^C2 D2- | D4 _D2 | CD E2 F2- | F4 E2 | F4 D2- | D6 | %30
 C_D C4 |][K:C] x6 | x6 |[K:C][M:4/4] (C8 | C8) | D4 C4 | B,6 =F2- | F2 E2 G2 F2 | E2 C2 D2 B,2- | %39
 B,2 C4 B,2 | C6 B,2 | C4 B,4 | B,4 C4 | B,4 G,4 |] x8 |[M:3/4] x [EG] [^D^F]2 [EG]2 | %46
 x [DF] _E2 =E2 | x D C4 | B,2 D2 C2 || C6- | CB, D4 | D2 C2 DC- | C2 B,2 z2 | CD E4- | E G2 F ED | %55
 C4 DC- | C2 B,2 z2 | DC B,4 | C2 D2 C2- | C4 B,2- | B,2 C4- | C2 B,4 | C2 E2 E2 | DC B,4- | %64
 B,4 C2 |] x6 | C6 | D6 | C6- | C2 B,2 _B,2 | A,2 ^G,2 A,2- | A,6- | A,4 _B,2 | B,2 C4- |: C6- | %75
 C6 | A2 G2 F2 | F2 E2 D2 | ^C2 D2 E2 | D6- | D2 C2 B,2 | C4 z2 :|[K:D] x6 ||[K:D] x6 | D2 DA, DE | %85
 FG FE D2- | D2 C4 || x4 D2- | D6- | D6- | D4 C2 | x4 D2- | D6- | D6- | D4 C2 | D2 E2 DC | x4 D2 | %97
 ED C4 | x4 D2- | D6- | D4 C2 | DE ^D2 =C2 | B,2 C2 !fermata!D2 |[K:C] x6 |[M:4/4] E8 | F2 E2 D4- | %106
 D2 ^C2 D2 =C2- | C2 B,2 C4 | D2 C2 E4 | D2 C2 B,2 D2- | D2 C6- | C2 B,2 A,2 G,2 | B,4 C2 D2 | C8 | %114
 B,4 C2 D2 | C8- | C8- | C8 | B,3 A G2 F2 | E4 F2 D2- | D2 C2- C2 B,2 | G,8 |] x8 |:[K:F] C6 D2- | %124
 D4 FEDC- :| C3 D2 B,CD- | D C3 B,^G,A,B, | C4 B,2 GF- | F2 E2 DE F2 |][K:C] x8 |:[M:3/4] E4 ^D2 | %131
 E6 :: C6 | D6 | E2 D2 C2- |1 C2 (D2 CB, :|2 C)B, C4 |] x6 |[M:3/4] C2 D4 | ^C2 D2 =C2- | %140
 C2 A,2 B,2 | C4 D2- | D4 ^C2 | D4 C2- | C2 B,2 D2 | B,2 C2 z2 |: B,2 F2 E2 | FA- AG FE | D4 F2 | %149
 ^D2 E2 D2 | =D2 ^C4 | D4 C2- | CB, CD ED | B,2 C2 z2 :|[K:F] x6 |[M:4/4] F2 EF G4 | F2 D2 E2 F2- | %157
 F2 E F4 E | F6 E2 |: FG A2 BAG^F | G F2 E AGFE | F G2 F/E/ D3 C- | C6 z2 :| x8 | %164
[M:3/4] ^f2 e2 d2- | d2 ^c=B c2 | d2 c2 B2- x2 | B4 A2- | A6 | G6- || G2 EF ^F2 | G3 F G2 || %172
 A2 G2 F2- | F2 ED E2 | F2 E2 D2- | D2 C=B, A,2- | A,2 B,4 | =B,4 _B,2 | [A,E]6 | ^C2 D2 E2 | D6- | %181
 D4 C2- | C6 | D2 C=B, A,2- | A,2 B,4 | =B,2 ^C4 | D4 C2 | B,2 A,4 |][K:C] x6 |[M:2/4] C4- | C4 | %191
 DB, CD | C4- | C4- | C4- | C2 B,2 | C4 | B,2 CD | ^CD ED | C4 | B,3 C | D4 | CE F2 | EC DC | %204
 B,2 G,2 |] x4 ||[K:F][M:2/4] C ^C3 | D^D E2 | F2 G2- | GE F2- | FE D_D- | D2 C2 | C D2 E | F4- | %214
 F4- | FE D2- | D_D C2- | C4- | C2 D2- | D4- | D^C D2- | D2 EF | GB A2 | GF E2 | F4- | F2 E2 | %226
 G F3- | F4- | F4 | E3 F | C ^C3 | D^D E2 | F2 G2 | GE F2 | FE D_D- | D2 C2 |] x4 |[M:3/4] C2 D4 | %238
 ^C4 D2- | D6- | D4 C2 | F6- | F4 E2 |: F2 A2 G2 | ^F2 G2 A2 | B2 A2 G2- | G2 F2 G2 | F2 D2 E2 | %248
 F6 :|[K:G][M:3/4] x6 | B,^C D2 E2 | F2 A2 G2 | GF E3 ^D | E6 | E D3- D2- | D6 | C2 D4- | DC B,4 | %258
 D2 E4- | E4 D2 | B,2 E4 | E2 ^D2 B,2 | B,C D2 E2 | FA G4 | GF E3 ^D | !courtesy!=D^C B,4 |] %266
[K:F] x6 | C2 D4- | D3 ^C DE | F4 E2- | E2 ^C2 D2- | DC D2 C2 | C6- | C3 F ED- | D E3 D2- | D4 FE | %276
 F2 E2 _E2 | D4 ^DE | F4 z2 |] x6 |[M:4/4] x2 | A,2 B,2 C2 =B,2 | C8- | C4 _D4 | C2 _C2 B,4 | %285
 A,2 C2 =B,4 | C8- | C6 =B,C- | C8 |: F8- | F2 G4 F2 | D8 | B,2 =B,2 C4- | C8- | C6 ^C2 | D4 F4- | %296
 F2 D2 E2 D2- | D8 | E4 D2 _D2 | C6 B,2- |1 B,2 A,4 z2 :|2 B,2 G,2 A,2 z2 |] x8 |[M:4/4] A,4 B,4 | %304
 C8 | B,8 | C4 ^C2 D2 | E2 ^F2 G2 =F2 | E6 D2- | D2 C6- | C8 | B,2 C2 D2 FE | F2 E2 D4- | %313
 D2 C2 B,2 C2 | B,2 _A,2 G,2 =A,2 |][K:C] x8 |[M:2/4] CB, C2- | C4 | D4- | D4 | CB, C2- | C4- | %322
 C4- | CA, B,2 | C2 E2- | E2 ^C2 | D4- | D2 B,2 | C4- | CA, B,2 | C2 B,2 | C4 |[K:G] x4 | %333
[K:G][M:4/4] z2 D6 | E2 F3 E D2 | C2 B,6 | E6 D2 | C4 E4 | D8 | E4 C4 | D2 E2 D4- | D4 E4 | F4 D4 | %343
 E2 GF D4 |][K:F] x8 |[M:3/4] F6 | D4 C2 | AG F4- | F2 E2 C2 | E4 D2- | D4 C2- | C4 D2- | D4 C2- | %353
 C2 G2 E2 | F4 z2 |] x6 |[M:4/4] A,4 B,4 | B,8 | A,2 C6 | C6 z2 | E2 D4 C2 | B,2 A,2 B,4 | %362
 A,2 D6- | D4 C2 z2 | F2 E2 D4- | D6 C2- | C4 D4- | D6 C2 | D8- | D2 CB, A,2 z2 |] x8 |: %371
[M:3/4] z2 C4- | C6- | C4 D2 | E2 F4 :| C4 _ED- | D4 FE- | E4 _ED- | D4 FE | C2 D4 | CB, A,4 |] %381
[K:D] x6 |[M:3/4] D4 C2 | =C2 B,4 | D4 C2 | D4 z2 | D6 | C2 D2 E2 | D4 C2 | B,2 A,2 z2 |: %390
 C2 D2 ^D2 | E4 D2- :| D6 | C4 B,2 | D4 C2 | A,4 z2 |][K:C] x6 |:[M:3/4] C2 D2 C2 | B,4 C2 | %399
 FE DC DE | DE/F/- F2 E2 :| E4 F2 | G2 F2 E2- | EAGFEF | E2 D2 C2 | E6 | D2 C2 B,2- | B,C B,4 | %408
 C4 z2 |] x6 |] %410
V:3
 x6 | x6 | x6 | x6 | x6 | x6 | x6 | x6 | x6 | x6 | x6 | x6 | x6 | x6 | x6 | x6 | x6 | x6 |] %18
[K:F] z6 |[K:F] x6 | x6 | x6 | x6 | x6 | x6 | x6 | x6 | x6 | x6 | x6 | x6 |][K:C] z6 | z6 | %33
[K:C][M:4/4] x8 | x8 | x8 | x8 | x8 | x8 | x8 | x8 | x8 | x8 | x8 |] z8 |[M:3/4] x2 ^F,2 E,2 | x6 | %47
 x6 | x6 || x6 | x6 | x6 | x6 | x6 | x6 | x6 | x6 | x6 | x6 | x6 | x6 | x6 | x6 | x6 | x6 |] z6 | %66
 x6 | x6 | x6 | x6 | x6 | x6 | x6 | x6 |: x6 | x6 | x6 | x6 | x6 | x6 | x6 | x6 :|[K:D] z6 || %83
[K:D] x6 | x6 | x6 | x6 || x6 | x6 | x6 | x6 | x6 | x6 | x6 | x6 | x6 | x6 | x6 | x6 | x6 | x6 | %101
 x6 | x6 |[K:C] z6 |[M:4/4] x8 | x8 | x8 | x8 | x8 | x8 | x8 | x8 | x8 | x8 | x8 | x8 | x8 | x8 | %118
 x8 | x8 | x8 | x8 |] z8 |:[K:F] x8 | x8 :| x8 | x8 | x8 | x8 |][K:C] z8 |:[M:3/4] x6 | x6 :: x6 | %133
 x6 | x6 |1 x6 :|2 x6 |] z6 |[M:3/4] x6 | x6 | x6 | x6 | x6 | x6 | x6 | x6 |: x6 | x6 | x6 | x6 | %150
 x6 | x6 | x6 | x6 :|[K:F] z6 |[M:4/4] x8 | x8 | x8 | x8 |: x8 | x8 | x8 | x8 :| z8 | %164
[M:3/4][K:treble] z6 | x6 | x6 x2[K:bass] |[K:bass] x6[K:bass] | x6 | x6 || x6 | x6 || x6 | x6 | %174
 x6 | x6 | x6 | x6 | x6 | x6 | x6 | x6 | x6 | x6 | x6 | x6 | x6 | x6 |][K:C] z6 |[M:2/4] x4 | x4 | %191
 x4 | x4 | x4 | x4 | x4 | x4 | x4 | x4 | x4 | x4 | x4 | x4 | x4 | x4 |] z4 ||[K:F][M:2/4] x4 | x4 | %208
 x4 | x4 | x4 | x4 | x4 | x4 | x4 | x4 | x4 | x4 | x4 | x4 | x4 | x4 | x4 | x4 | x4 | x4 | x4 | %227
 x4 | x4 | x4 | x4 | x4 | x4 | x4 | x4 | x4 |] z4 |[M:3/4] x6 | x6 | x6 | x6 | x6 | x6 |: x6 | x6 | %245
 x6 | x6 | x6 | x6 :|[K:G][M:3/4] z6 |"^dopp." x6 | x6 | x6 | x6 | x6 | x6 | x6 | x6 | x6 | x6 | %260
 x6 | x6 |"^dopp." x6 | x6 | x6 | x6 |][K:F] z6 | A,4 B,2- | B,6 | C4 B,2 | A,6- | A,2 G,F, E,2 | %272
 F,2 E,2 F,2 | G,>F, G,>A, B,C/B,/ | A,B,/C/ B,A,/G,/ F,>^F, | G,3 A, B,2 | A,2 G,2 A,2 | %277
 G,2 A,2 B,2 | A,4 z2 |] z6 |[M:4/4] z2 | x8 | x8 | x8 | x8 | x8 | x8 | x8 | x8 |: x8 | x8 | x8 | %292
 x8 | x8 | x8 | x8 | x8 | x8 | x8 | x8 |1 x8 :|2 x8 |] z8 |[M:4/4] x8 | x8 | x8 | x8 | x8 | x8 | %309
 x8 | x8 | x8 | x8 | x8 | x8 |][K:C] z8 |[M:2/4] x4 | x4 | x4 | x4 | x4 | x4 | x4 | x4 | x4 | x4 | %326
 x4 | x4 | x4 | x4 | x4 | x4 |[K:G] z4 |[K:G][M:4/4] x8 | x8 | x8 | x8 | x8 | x8 | x8 | x8 | x8 | %342
 x8 | x8 |][K:F] z8 |[M:3/4] x6 | x6 | x6 | x6 | x6 | x6 | x6 | x6 | x6 | x6 |] z6 |[M:4/4] x8 | %357
 x8 | x8 | x8 | x8 | x8 | x8 | x8 | x8 | x8 | x8 | x8 | x8 | x8 |] z8 |:[M:3/4] x6 | x6 | x6 | %374
 x6 :| x6 | x6 | x6 | x6 | x6 | x6 |][K:D] z6 |[M:3/4] x6 | x6 | x6 | x6 | x6 | x6 | x6 | x6 |: %390
 x6 | x6 :| x6 | x6 | x6 | x6 |][K:C] z6 |:[M:3/4] x6 | x6 | x6 | x6 :| x6 | x6 | x6 | x6 | x6 | %406
 x6 | x6 | x6 |] z6 |] %410
V:4
 E,G,- G,4 | A,2 ^F,2 G,2 | A,6 | G,6- | G,6 | A,2 B,2 C2 | B,2 A,2 _A,2 | G,^F, G,2 =F,2 | %8
 E,2 A,2 G,2- | G,4 F,2 | G,2 F,4 | E,2 D,2 E,2- | E,A,- A,4 | G,6 | A,3 _B, A,_A, | G,3 _A, G,2 | %16
 F,6- | F,4 E,2 |][K:F] x6 |[K:F] A,4 G,2 | F,4 E,2 | F,6- | F,D, _E,2 =E,2 | G,6 | F,2 G,2 A,2 | %25
 B,6 | A,B, C2 ^C2 | D4 _D2 | C4 B,2- | B,6- | B, G,3 A,2 |][K:C] x6 | x6 |[K:C][M:4/4] E,4 F,4 | %34
 G,2 F,2 E,4- | E,8- | E,2 ^D,2 E,2 B,2 | C8 | B,2 A,4 G,2- | G,8- | G,4 _A,4 | G,8 | G,4 A,4 | %43
 G,2 F,2 E,4 |] x8 |[M:3/4] [E,G,]2 A,4 | [F,_B,]2 [G,B,]4 | [F,_A,]2 =A,2 G,2- | G, F,3 E,2 || %49
 E,2 F,2 G,2 | F,2 G,4- | G,4 A,2 | G,4 z2 | A,B, C2 D2 | C2 DC B,2 | A,6 | _A,2 G,2 z2 | %57
 A,2 G,4- | G,4 E,2 | F,4 G,2- | G,2 A,4- | A,2 G,4- | G,2 ^G,2 A,2 | A,2 G,4 | F,4 E,2 |] x6 | %66
 G,2 E,2 G,2- | G,2 ^G,4 | A,6 | _A,2 G,2 _G,2 | F,6- | F,6- | F,6- | F,2 E,2 D,2 |: E,6- | E,6 | %76
 F,6 | D,2 E,4 | A,6- | A,4 _A,2 | G,4 F,2- | F,2 E,2 z2 :|[K:D] x6 ||[K:D] x6 | x6 | %85
 D,2 D,A,, D,E, | F,2 G,4 || F,2 G,2 A,2 | A,2 B,4 | A,2 C2 B,2 | A,6- | A,2 G,2 F,G, | A,4 G,2 | %93
 F,2 G,4 | A,4 G,2 | F,2 E,2 A,2 | A,2 G,2 F,A, | A,4 G,2 | F,2 G,2 A,2 | G,6 | F,2 E,2 G,2 | F,6 | %102
 G,4 F,2 |[K:C] x6 |[M:4/4] C8- | C6 B,2 | A,6 _A,2 | G,2 F,2- F,2 E,2 | G,4 A,2 G,2- | %109
 G,2 ^F,2 G,4 | A,2 G,2 F,4- | F,6 E,2 | G,8- | G,8- | G,8- | G,8- | G,6 _G,2 | F,8 | ^F,4 (G,4 | %119
 G,2) A,2- A,2 _A,2 | G,4 (F,4 | F,2) D,2 E,4 |] x8 |:[K:F] A,B, A,6 | G,4- G, B,2 A,- :| %125
 A,2 F,A, G,4- | G,E, F,4- F,G, | A,4 F,2 G,2 | A,D C2 B,2 A,2 |][K:C] x8 |:[M:3/4] A,6- | %131
 A,2 ^G,4 :: A,6 | _B,6 | A,6- |1 (A,2 ^G,4) :|2 A,G,- G,4 |] x6 |[M:3/4] G,2 ^G,4 | A,6 | G,6 | %141
 F,2 E,2 G,2 | ^G,4 A,2 | _B,4 A,2 | _A,2 G,4- | G,4 z2 |: G,2 A,B, C2- | C2 B,2 ^C2 | D2 A,2 F,2 | %149
 ^F,2 G,4 | ^G,2 A,4 | _B,2 A,2 _A,2 | G,6- | G,4 z2 :|[K:F] x6 |[M:4/4] C2 B,C DEFE | %156
 DA, B,2 C3 E | DCB,A, G,2 C2- | C2 D4 ^C2 |: D4- D_EDC- | C4- C_DCB, | A,4- A,G,F,E, | F,6 z2 :| %163
 x8 |[M:3/4][K:treble] x6 | A4 G2 | F6- x2[K:bass] |[K:bass] F2[K:bass] ED E2 | D6- | D6 || C6- | %171
 C6 || C6- | C4 B,2 | A,6- | A,4 G,2 | F,2 G,4 | ^G,6 | A,6 | G,6- | G,2 F,E, F,2- | F,2 E,D, E,2 | %182
 F,6 | A,4 G,2 | F,2 G,4 | ^G,2 A,2 =G,2- | G,2 F,E, F,2 | G,2 ^F,4 |][K:C] x6 | %189
[M:2/4] G,^G, A,D, | ^D,E, F,^F, | G,4- | G,4 | A,G, F,2 | E,2 F,2 | A,_A, G,2- | G,3 A, | G,4 | %198
 A,4- | A,G, F,2- | F,2 G,2- | G, ^G,3 | A,3 C | B,A,- A,2 | G,F, E,2 |] x4 || %206
[K:F][M:2/4] A,2 B,2 | =B,2 C2 | ^C4 | D4- | DC _CB,- | B,G, A,2 | G,A, C2 | C3 G, | A,2 =B,2 | %215
 C2 _C2 | B,4- | B,G, A,2- | A,G, ^F,A, | G,3 B, | A,G, F,A, | G,3 C- | C3 D- | D2 C2- | C3 A, | %225
 B,2 C2- | C2 D2 | _D2 C2 | D4 | C4 | A,2 B,2 | =B,2 C2 | ^C4 | D4 | DC _CB, | B,G, A,2 |] x4 | %237
[M:3/4] A,4 G,2- | G,4 A,2 | B,2 A,4 | G,6- | G,6 | A,4 B,2 |: A,6- | A,2 D4- | D4 _D2 | C6- | %247
 C4 B,2- | B,4 A,2 :|[K:G][M:3/4] x6 | G,A, B,2 ^C2 | D2 F2 EA, | B,C B,G, A,^A, | %253
 !courtesy!=A,F, G,4- | G,A, G,2 F,2 | G,F, =F,2 E,2- | E,2 A,4 | G,6 | G,2 ^G,2 A,2- | %259
 A,2 G,2 F,2 | G,2 B,G, A,2 | ^A,2 B,2 =A,2 | G,A, B,2 C2 | DA, B,2 ^A,2 | B,C B,G, A,B,- | %265
 B,A, G,4 |][K:F] x6 | x6 | x6 | x6 | x6 | x6 | x6 | x6 | x6 | x6 | x6 | x6 | x6 |] x6 | %280
[M:4/4] x2 | F,8- | F,2 D,2 E,4 | F,8- | F,4 E,4 | F,4 G,4- | G,2 F,2 E,2 F,2 | G,2 _A,2 G,2 F,2- | %288
 F,2 E,D, E,4 |: C4 D4- | D2 E2 C4 | B,4 G,4- | G,6 A,2 | B,8- | B,2 A,2 G,4 | F,4 G,4 | %296
 F,4 E,2 ^F,2 | G,8- | G,4 F,4- | F,2 D,2 E,4 |1 D,2 C,4 z2 :|2 D,4 C,2 z2 |] x8 |[M:4/4] F,4 E,4 | %304
 F,2 E,2 F,4 | E,4 F,4 | G,2 A,6 | C4 B,4 | C2 B,2 A,4- | A,2 G,2 F,2 G,2 | F,2 E,2 F,2 _E,2 | %311
 D,2 G,4- G,B, | A,8- | A,2 G,2 F,2 C,2 | _D,4 C,4 |][K:C] x8 |[M:2/4] E,2 F,2 | G,4- | G,2 F,2 | %319
 G,2 F,2 | E,4- | E,2 D,2 | E,2 D,2- | D,2 G,2- | G,2 B,2 | A,4- | A,4 | G,4- | G,2 _A,2 | G,3 F, | %330
 E,^F, G,=F, | F,D, E,2 |[K:G] x4 |[K:G][M:4/4] z CB,C B,2 A,2 | B,2 D3 C B,2 | A,2 G,2 F,2 A,2 | %336
 G,CB,A, G,2 B,2 | A,8- | A,4 B,4 | A,8- | A,8 | B,8 | D2 C2 B,4 | C4 B,4 |][K:F] x8 | %345
[M:3/4] A,4 C2- | C2 B,4 | A,4 F,2 | G,4 A,2- | A,2 G,2 ^F,2 | G,2 F,2 E,2 | F,6 | A,2 G,4 | %353
 A,2 C4- | C4 z2 |] x6 |[M:4/4] F,2 E,2 D,4- | D,4 E,4 | F,4 E,4 | F,6 z2 | A,4 G,4 | F,4 G,4 | %362
 A,4 G,4 | F,2 G,2 A,2 z2 | A,4 B,4- | B,4 G,4 | A,6 F,2 | G,8 | A,4 G,2 F,2- | F,6 z2 |] x8 |: %371
[M:3/4] z B, A,B, A,_A, | B,4 A,G, | F,G, A,B, A,G,- | G,B, A,4 :| (F,4- F,)B, | A, G,2 A,2 B, | %377
 A,6 | G,3 A,2 B, | A,G, F,^F, G,=F, | E,2 F,4 |][K:D] x6 |[M:3/4] F,4 ^E,2 | F,4 G,2 | %384
 A,F, A,2 G,2- | G,E, F,2 z2 | F,4 G,2 | E,2 A,4- | A,2 B,2 A,G,- | G,2 F,2 z2 |: A,4 B,2- | %391
 B,2 A,4 :| F,4 E,2 | F,2 E,4 | F,A, _B,2 A,G,- | G,2 F,2 z2 |][K:C] x6 |:[M:3/4] E,2 G,4- | G,6 | %399
 A,4 _A,2 | G,6 :| A,2 B,2 D2 | C2 A,2 C2- | C6 | B,2 G,4 | A,6- | A,2 _A,2 G,F, | G,4 F,2 | %408
 E,4 z2 |] x6 |] %410
V:5
 C,6- | C,6 | A,,2 D,4 | G,4 F,2 | E,6 | D,2 G,2 C,2- | C,6- | C,D, G,,4 | C,6 | B,,2 C,2 A,,2 | %10
 G,,6 | C,4 B,,2 | A,,2 B,,C, D,2 | G,G,, A,,B,, C,2 | A,,2 D,3 C, | B,,2 C,4 | F,2 E,2 D,2 | %17
 G,,2 C,4 |][K:F] x6 |[K:F] F,4 E,2 | D,=B,, C,2 _B,,2 | A,,2 G,,4 | C,6 | B,,2 A,,2 G,,2 | %24
 D,2 E,2 F,2 | G,2 F,2 E,2 | F,4 G,A, | B,2 A,2 G,2 | F,2 E,2 B,A,- | A,2 G,2 F,E, | F,6 |] %31
[K:C] x6 | x6 |[K:C][M:4/4] C,8- | C,8 | B,,4 A,,4 | B,,4 E,2 =D,2 | C,4 F,2 D,2 | %38
 E,2 A,2 D,2 G,2 | C,2 E,2 G,2 F,2 | E,4 D,4 | C,2 E,2 G,2 F,2 | E,4 A,,4 | G,2 G,,2 C,4 |] x8 | %45
[M:3/4] C,4 ^C,2 | D,2 _D,2 ^C,2 | D,2 ^F,2 G,2 | G,G,, C,4 || C,2 D,2 E,2 | F,2 B,,4 | %51
 C,2 E,2 F,2 | G,4 z2 | A,4 ^G,2 | A,2 D,2 G,2 | A,2 A,,2 F,2 | ^F,2 G,2 z2 | D,2 G,2 G,,2 | %58
 A,,2 B,,2 C,2 | A,,2 _A,,2 G,,2 | E,2 A,,4 | D,2 G,2 F,2 | E,2 D,2 ^C,2 | D,2 G,2 G,,2- | %64
 G,,2 C,4 |] x6 | C,4 B,,2 | _B,,6 | A,,2 G,2 F,2 | ^F,2 G,2 =G,2 | F,6 | E,4 D,2 | G,,6 | C,6- |: %74
 C,2 B,,2 _B,,2 | A,,2 _A,,2 G,,2 | F,,2 G,,2 A,,2 | B,,2 C,2 _B,,2 | A,,2 B,,2 ^C,2 | %79
 D,2 ^C,2 =C,2 | B,,2 A,,2 G,,2 | C,4 z2 :|[K:D] x6 ||[K:D] x6 | x6 | x6 | A,,6 || D,2 E,2 D,2 | %88
 D,C, B,,A, G,2 | F,4 G,2 | A,4 G,2 | F,2 E,2 D,2 | D,2 F,2 E,2 | D,2 B,,2 _B,,2 | A,,6 | %95
 D,2 C,2 A,,G, | F,2 E,2 D,2 | C,B,, A,,4 | D,2 E,2 D,2 | B,,4 _B,,2 | A,,6 | D,=C, B,,2 ^D,2 | %102
 E,2 !fermata!A,,2 !fermata!D,2 |[K:C] x6 |[M:4/4] C2 B,2 A,2 G,2 | F,4 G,4 | A,2 G,2 F,4 | %107
 G,2 G,,2 C,4 | B,,2 C,2 A,,2 B,,2 | C,2 ^D,2 E,4 | A,,6 _A,,2 | G,,4 C,4 | G,2 G,,2 A,,2 B,,2 | %113
 C,2 D,2 E,2 C,2 | G,2 G,,2 A,,2 B,,2 | C,2 D,2 E,2 C,2 | E,8 | F,6 E,2 | ^D,4 E,2 =D,2 | %119
 C,2 ^C,2 D,4 | G,4 G,,4 | C,8 |] x8 |:[K:F] F,G,A,G, F,E,D,C, | B,,G,,A,,B,, C,2 F,2- :| %125
 F,E,D,C, B,,G,,A,,B,, | C,2 A,,2 B,,=B,, C,D,/E,/ | F,2 _E,2 D,2 _D,2 | C,6 F,2 |][K:C] x8 |: %130
[M:3/4] A,,2 C,2 F,2 | E,6 :: F,2 E,2 D,2 | G,2 F,2 E,2 | ^C,2 D,2 E,2 |1 F,2 E,4 :|2 %136
 F,G, [C,E,]4 |] x6 |[M:3/4] C,2 B,,2 _B,,2 | A,,2 D,4 | G,2 F,2 D,2 | C,4 B,,2- | %142
 B,,2 _B,,2 A,,2 | D,6 | F,2 G,2 B,,2 | C,4 z2 |: E,2 D,2 C,2 | F,2 G,2 A,2 | D,6 | C,4 B,,2 | %150
 _B,,2 A,,2 D,2- | D,4 F,2 | G,G,, A,,B,, C,B,, | C,4 z2 :|[K:F] x6 |[M:4/4] F,,8 | %156
 D,2 G,2 C,2 F,,2 | D,4- D,_D, C,2 | F,,A,,G,,B,, A,,4 |: D,E,F,^F, G,3 D, | E,D, C,2 F,2 C,^C, | %161
 D,2 C,2 B,,2 C,2 | F,,6 z2 :| x8 |[M:3/4][K:treble] x6 | A4 A,2 | B,6 x2[K:bass] | %167
[K:bass] A,4[K:bass] G,2- | G,2 F,E, F,2 | G,4 F,2 || E,2 C,D, ^D,2 | E,3 D, E,2 || F,6 | C,6 | %174
 D,6 | A,,6 | D,6- | D,6- | D,2 ^C,=B,, C,2 | A,,2 =B,,2 ^C,2 | D,4 C,2 | B,,6- | %182
 B,,2 A,,G,, A,,2- | A,,6 | D,6- | D,2 A,,4 | D,6 | D,6 |][K:C] x6 |[M:2/4] C,4- | C,4 | %191
 B,,G,, A,,B,, | C,D, C,B,, | A,,3 _A,, | G,,_G,, F,,E, | D,3 _D, | C,D, E,^F, | G,G,, A,,_B,, | %198
 A,,B,, ^C,D, | A, A,,2 F,, | G,,2 C,2- | C,2 B,,_B,, | A,,C, D,2 | E,A, D,F,, | G,,2 C,2 |] x4 || %206
[K:F][M:2/4] F,4- | F,4- | F,2 E,_E, | D,C, B,,=B,, | C,4 | F,4 | E,D, C,2 | F,E, _E,2 | D,2 _D,2 | %215
 C,4- | C,4 | F,4- | F,E, D,^F, | G,F, E,2 | F,E, D,2 | B,,2 C,D, | E,2 F,^F, | G,4 | F,E, _E,2 | %225
 D,_D, C,2 | F,4- | F,3 E, | D,C, B,,2 | C,2 F,2- | F,4- | F,4- | F,2 E,_E, | D,C, B,,=B,, | C,4 | %235
 F,4 |] x4 |[M:3/4] F,2 D,2 B,,2 | A,,4 D,2 | G,2 ^F,4 | G,2 F,2 E,2 | D,4 _D,2 | C,6 |: %243
 F,2 E,2 _E,2 | D,2 E,2 ^F,2 | G,2 _G,2 F,2 | E,2 D,2 E,2 | F,2 C,4 | F,6 :|[K:G][M:3/4] x6 | %250
 E,6- | E,6- | E,6- | E,4- E,D, | C,2 B,,2 A,,2 | G,,4 ^G,,2 | A,,2 B,,4 | C,4 E,2 | %258
 G,,F, E,D, C,2 | ^C,4 D,2 | E,2 D,2 C,2 | ^C,2 B,,C, ^D,2 | E,6- | E,6- | E,6- | E,6 |][K:F] x6 | %267
 x6 | x6 | x6 | x6 | x6 | x6 | x6 | x6 | x6 | x6 | x6 | x6 |] x6 |[M:4/4] x2 | %281
 F,,2 G,,2 A,,2 G,,2 | C,6 B,,2 | A,,4 G,,4 | C,8 | D,4 G,2 F,2 | E,2 D,2 C,2 A,,2 | G,,8 | %288
 C,6 B,,2 |: A,,4 B,,2 G,,2 | C,2 C,,2 F,,4 | G,,4 B,,4 | D,2 F,2 E,2 C,2- | C,4 D,2 E,2 | %294
 F,6 E,2 | D,6 _D,2 | C,6 A,,2 | G,,2 A,,2 B,,2 =B,,2 | C,2 =B,,_B,, A,,2 G,,2 | C,4 C,,4 |1 %300
 F,,6 G,,^G,, :|2 F,,6 x2 |] x8 |[M:4/4] F,,4 G,,4 | A,,2 G,,2 F,,2 A,,2 | C,4 D,4 | %306
 E,2 F,2 E,2 D,2- | D,4 _E,2 _D,2 | C,4 D,4 | A,,4 B,,4 | A,,2 G,,2 F,,2 ^F,,2 | %311
 G,,2 A,,2 B,,2 C,2 | ^C,4 D,2 G,,2 | A,,4 B,,2 G,,2 | F,,8 |][K:C] x8 |[M:2/4] C,4- | C,2 A,,2 | %318
 B,,2 D,2 | B,,4 | C,2 B,,2 | A,,2 _A,,2 | G,,2 ^F,,2 | G,,3 F, | E,2 D,2 | ^C,2 A,,2 | D,2 C,2 | %327
 B,,2 G,,2 | C,4 | G,,4 | A,,_A,, G,,2 | C,4 |[K:G] x4 |[K:G][M:4/4] z3 A, G,2 F,2 | E,2 D,2 G,4 | %335
 F,2 E,2 B,,4 | C,6 G,2 | A,,4 C,4 | D,4 B,,4 | C,4 A,,4 | D,2 ^C,2 D,4 | G,4 E,4 | D,4 G,4 | %343
 E,2 D,2 G,4 |][K:F] x8 |[M:3/4] F,2 E,4 | D,2 G,2 E,2 | F,2 E,2 D,2- | D,2 C,2 F,2 | A,,6 | G,,6 | %351
 F,,2 E,2 D,2- | D,2 B,,2 E,2 | F,2 E,2 F,2- | F,4 z2 |] x6 |[M:4/4] F,,8 | B,,4 C,4 | F,,4 C,4 | %359
 F,6 z2 | D,2 C,2 B,,2 C,2 | D,4 E,4 | F,4 E,4 | A,,6 z2 | D,2 C,2 B,,2 A,,2 | G,,4 C,2 E,2 | %366
 F,2 E,2 D,2 C,2 | B,,4 C,2 E,2 | D,4 B,,4 | C,6 z2 |] x8 |:[M:3/4] x6 | G,F, E,D, E,2 | F,4 B,,2 | %374
 C,2 F,4 :| F,,2 A,,2 B,,2- | B,,2 =B,,2 C,2 | ^C,2 D,=C, B,,2- | B,,2 =B,,2 C,2 | F,E, D,2 G,,2 | %380
 C,6 |][K:D] x6 |[M:3/4] D,6- | D,2 ^D,2 E,2 | F,D, A,,4 | D,4 C,2 | B,,2 A,,2 G,,2 | %387
 A,,2 B,,2 C,2 | D,F, G,2 A,A,, | D,4 z2 |: F,6 | E,2 C,2 D,2- :| D,2 B,,2 ^G,,2 | A,,2 F,,2 G,,2 | %394
 A,,2 ^G,,2 A,,2 | D,4 z2 |][K:C] x6 |:[M:3/4] C,2 B,,2 A,,2 | G,,2 F,2 E,2 | D,2 E,2 F,2 | %400
 G,2 C,4 :| A,,2 E,2 D,2 | E,2 F,2 C,2 | F,2 E,2 D,2 | G,2 B,,2 C,2- | C,2 ^C,4 | D,6 | C,2 G,,4 | %408
 C,4 z2 |] x6 |] %410
V:6
 x6 | x6 | x6 | x6 | x6 | x6 | x6 | x6 | x6 | x6 | x6 | x6 | x6 | x6 | x6 | x6 | x6 | x6 |] %18
[K:F] x6 |[K:F] x6 | x6 | x6 | x6 | x6 | x6 | x6 | x6 | x6 | x6 | x6 | x6 |][K:C] x6 | x6 | %33
[K:C][M:4/4] x8 | x8 | x8 | x8 | x8 | x8 | x8 | x8 | x8 | x8 | x8 |] x8 |[M:3/4] x6 | x6 | x6 | %48
 x6 || x6 | x6 | x6 | x6 | x6 | x6 | x6 | x6 | x6 | x6 | x6 | x6 | x6 | x6 | x6 | x6 |] x6 | x6 | %67
 x6 | x6 | x6 | x6 | x6 | x6 | x6 |: x6 | x6 | x6 | x6 | x6 | x6 | x6 | x6 :|[K:D] x6 ||[K:D] x6 | %84
 x6 | x6 | x6 || x6 | x6 | x6 | x6 | x6 | x6 | x6 | x6 | x6 | x6 | x6 | x6 | x6 | x6 | x6 | x6 | %103
[K:C] x6 |[M:4/4] x8 | x8 | x8 | x8 | x8 | x8 | x8 | x8 | x8 | x8 | x8 | x8 | x8 | x8 | x8 | x8 | %120
 x8 | x8 |] x8 |:[K:F] x8 | x8 :| x8 | x8 | x8 | x8 |][K:C] x8 |:[M:3/4] x6 | x6 :: x6 | x6 | x6 |1 %135
 x6 :|2 x6 |] x6 |[M:3/4] x6 | x6 | x6 | x6 | x6 | x6 | x6 | x6 |: x6 | x6 | x6 | x6 | x6 | x6 | %152
 x6 | x6 :|[K:F] x6 |[M:4/4] x8 | x8 | x8 | x8 |: x8 | x8 | x8 | x8 :| x8 |[M:3/4][K:treble] x6 | %165
 x6 | x8[K:bass] |[K:bass] x2[K:bass] x4 | x6 | x6 || x6 | x6 || x6 | x6 | x6 | x6 | x6 | x6 | x6 | %179
 x6 | x6 | x6 | x6 | x6 | x6 | x6 | x6 | x6 |][K:C] x6 |[M:2/4] x4 | x4 | x4 | x4 | x4 | x4 | x4 | %196
 x4 | x4 | x4 | x4 | x4 | x4 | x4 | x4 | x4 |] x4 ||[K:F][M:2/4] x4 | x4 | x4 | x4 | x4 | x4 | x4 | %213
 x4 | x4 | x4 | x4 | x4 | x4 | x4 | x4 | x4 | x4 | x4 | x4 | x4 | x4 | x4 | x4 | x4 | x4 | x4 | %232
 x4 | x4 | x4 | x4 |] x4 |[M:3/4] x6 | x6 | x6 | x6 | x6 | x6 |: x6 | x6 | x6 | x6 | x6 | x6 :| %249
[K:G][M:3/4] x6 | E,,6- | E,,6- | E,,6- | E,,4 x2 | x6 | x6 | x6 | x6 | x6 | x6 | x6 | x6 | E,,6- | %263
 E,,6- | E,,6- | E,,6 |][K:F] x6 | F,4 G,2- | G,6 | F,2 C,2 ^C,2 | D,6 | A,,2 B,,2 C,B,, | %272
 A,,2 G,,2 F,,E, | D,4- D,2 | D,C, ^C,2 D,=C, | B,,2 =B,,2 C,2 | F,,2- F,,2 ^F,,2 | G,,2 C,2- C,2 | %278
 F,4 z2 |] x6 |[M:4/4] x2 | x8 | x8 | x8 | x8 | x8 | x8 | x8 | x8 |: x8 | x8 | x8 | x8 | x8 | x8 | %295
 x8 | x8 | x8 | x8 | x8 |1 x8 :|2 x8 |] x8 |[M:4/4] x8 | x8 | x8 | x8 | x8 | x8 | x8 | x8 | x8 | %312
 x8 | x8 | x8 |][K:C] x8 |[M:2/4] x4 | x4 | x4 | x4 | x4 | x4 | x4 | x4 | x4 | x4 | x4 | x4 | x4 | %329
 x4 | x4 | x4 |[K:G] x4 |[K:G][M:4/4] x8 | x8 | x8 | x8 | x8 | x8 | x8 | x8 | x8 | x8 | x8 |] %344
[K:F] x8 |[M:3/4] x6 | x6 | x6 | x6 | x6 | x6 | x6 | x6 | x6 | x6 |] x6 |[M:4/4] x8 | x8 | x8 | %359
 x8 | x8 | x8 | x8 | x8 | x8 | x8 | x8 | x8 | x8 | x4 F,,2 x2 |] x8 |:[M:3/4] x6 | x6 | x6 | x6 :| %375
 x6 | x6 | x6 | x6 | x6 | x2 F,,4 |][K:D] x6 |[M:3/4] x6 | x6 | x6 | x6 | x6 | x6 | x6 | x6 |: x6 | %391
 x6 :| x6 | x6 | x6 | x6 |][K:C] x6 |:[M:3/4] x6 | x6 | x6 | x6 :| x6 | x6 | x6 | x6 | x6 | x6 | %407
 x6 | x6 |] x6 |] %410

